X: 1
T: Gorman's
M: 4/4
L: 1/8
R: reel
K: Dmaj
~A2AB/c/ defa|~a2fd efdB|~A2AB/c/ defe|dBAF EFD2:|
~a3f defa|~a2fd efd2|~a3f defe|dBAF EFD2|
~a3f defg|adfd efdB|~A2AB/c/ defe|dBAF EFD2||
